X: 18237
T: Humours Of Kinvara, The
R: reel
M: 4/4
K: Edorian
BE (3EEE BEdE|BE (3EEE BcdB|cA (3AAA cAeA|ceef e2dc|
BE (3EEE BEdE|BE (3EEE BcdB|cA (3AAA cAeA|ceef e2de||
f2fe dcBA|Affe d2de|f2fe fgaf|ecAc e2de|
f2fe dcBA|Affe dcde|f2fe fgaf|ecAc e2dc||

